X: 1
T: Hurry, Hurry, Hurry #2
I: Hurry, Hurry, HurryS-HDsquare
%C: S-H
M: C|
Z: Transcribed to abc by Mary Lou Knack
R: square
K: D
A2 |: "D"d2d2 c2c2| B2B2 A2A2| z2 B4 A2| F6 F2| A2A2 A2A2| A2A2 G2F2| "A7"z2 A4 G2|
      "A7"E6 A2| c2c2 B2B2| A2A2 G2G2| z2 A4 G2| E2E2 F2G2| A2A2 A2B2| A2G2 F2E2 |
      [1 "D"D8-| D2A2 B2c2 :| [2 "D"D8-| D4 F2G2| "A7"A2A2 A2B2| A2G2 F2E2| "D"D8-| D2 |]
